X:1
T:The Christian’s Inheritance
T:The Christian’s Inheritance
T:William Gustin Cooper
T:Hannah M. Richards, 1898
T:Public Domain Courtesy of the Cyber Hymnal™
T:Public Domain Courtesy of the Cyber Hymnal™
C:William Gustin Cooper
Z:Public Domain
Z:Courtesy of the Cyber Hymnal™
%%score ( 1 2 ) ( 3 4 )
L:1/8
Q:1/4=80
M:6/8
K:Eb
V:1 treble 
V:2 treble 
V:3 bass 
V:4 bass 
V:1
 [B,E]/[B,F]/ | [EG][EG][EG] [EG][B,F][B,E] | [CE][CA][Ec] [EB]2 [B,E]/[B,E]/ | %3
w: 1.~Let the|world have its dia- monds, its|sil- ver and gold, I am|
w: 2.~Let the|world have its pot- tage, my|birth- right I’ll keep, For its|
w: 3.~Let the|world have its hon- ors, am-|bi- tions and fame, In the|
w: 4.~I am|near- ing the ci- ty, its|spires I can see, And its|
 [CE][EG][GB] [Ac][GB][EG] | [EG][EF][EF] !fermata![DF]2 [EG]/[FA]/ | [GB][GB][GB] [GB][FA][EG] | %6
w: rich- er by far with the|ti- tle I hold; I am|heir to a king- dom, a|
w: plea- sures or toys I’ll not|gro- vel or creep; I’m a|child of a king, I’ll not|
w: Lamb’s Book of Life has been|writ- ten my name; When the|world is on fire, still my|
w: pearl- y gates soon will be|o- pened for me; With the|shout of a vic- tor, I|
 [Ac][Ac][Ac] !fermata![Ae]2 !fermata![Ae]/[Ac]/ | [GB][Ac][GB] [GB][EG][EB] | %8
w: crown and a throne, That shall|stand when earth’s king- doms are|
w: bar- ter a crown For the|tri- fles of earth, for its|
w: name shall en- dure, And my|king- dom and pal- ace will|
w: soon shall be crowned, While the|arch- es of Heav’n with ho-|
 [FA][DG][DF] !fermata!E2 ||"^Refrain" [GB]/[GB]/ | [GB][GB][GB] (dc)[AB] | %11
w: all o- ver- thrown.|||
w: wealth or re- nown.|Hal- le-|lu- jah! my soul * mounts|
w: then be se- cure.|||
w: san- nas re- sound.|||
 [Ge][GB][Ac] [GB]2 [GB]/[GB]/ | [Ac][Ae][Ac] [Ac][GB][EG] | %13
w: ||
w: up- ward and sings; Hal- le-|lu- jah to Je- sus, the|
w: ||
w: ||
 [EG][EF][EF] !fermata![DF]2 [EG]/[FA]/ | [GB][GB][GB] [GB][FA][EG] | %15
w: ||
w: King of all kings! Hal- le-|lu- jah! the “king- dom to|
w: ||
w: ||
 [Ec][Ec][Ec] !fermata![Ae]2 [Ad]/[Ac]/ | [Ac][GB][GB] [GB]2 [EB]/[EB]/ | %17
w: ||
w: come” draw- eth nigh; What a|crown- ing ’twill be in the|
w: ||
w: ||
 [Dc][DB][DA] !fermata![EG]2 [EB]/[EB]/ | [Ec]!fermata![Ae][Ac]"^riten." [GB]2 [EG]/[EG]/ | %19
w: ||
w: sweet by- and- by, What a|crown- ing ’twill be in the|
w: ||
w: ||
 [DA][DG][DF] !fermata!E2 |] %20
w: |
w: sweet by- and- by!|
w: |
w: |
V:2
 x | x6 | x6 | x6 | x6 | x6 | x6 | x6 | x3 E2 || x | x3 A2 x | x6 | x6 | x6 | x6 | x6 | x6 | x6 | %18
 x6 | x3 E2 |] %20
V:3
 [E,G,]/[E,A,]/ | [E,B,][E,B,][E,B,] [E,B,][E,A,][E,G,] | %2
 [A,,A,][A,,E,][A,,A,] [E,G,]2 [E,G,]/[E,G,]/ | [E,G,][E,B,][E,E] [E,E][E,E][E,B,] | %4
 [F,=A,][F,A,][F,A,] !fermata![B,,B,]2 [E,B,]/[E,B,]/ | [E,E][E,E][E,E] [E,E][F,B,][G,B,] | %6
 A,[A,E][A,E] [A,C]2 [A,C]/[A,E]/ | [E,E][E,E][E,E] [E,E][E,B,][E,G,] | %8
 [B,,B,][B,,B,][B,,A,] !fermata![E,G,]2 || [E,E]/[E,E]/ | [E,E][E,E][E,E] B,2 B, | %11
 [E,B,][E,E][E,E] [E,E]2 [E,E]/[E,E]/ | [A,E][A,C][A,E] [E,E][E,E][E,B,] | %13
 [F,=A,][F,A,][F,A,] !fermata![B,,B,]2 [E,B,]/[E,B,]/ | [E,E][E,E][E,E] [E,E][E,B,][E,B,] | %15
 A,A,A, !fermata![A,C]2 [A,D]/[A,E]/ | [E,E][E,E][E,E] [E,E]2 [E,G,]/[E,G,]/ | %17
 [B,,B,][B,,B,][B,,B,] !fermata![E,B,]2 [E,G,]/[E,G,]/ | %18
 A,!fermata![A,C][A,E] [E,E]2 [E,B,]/[E,B,]/ | [B,,B,][B,,B,][B,,A,] !fermata![E,G,]2 |] %20
V:4
 x | x6 | x6 | x6 | x6 | x6 | A, x5 | x6 | x5 || x | x3 B,2 B, | x6 | x6 | x6 | x6 | A,A,A, x3 | %16
 x6 | x6 | A, x5 | x5 |] %20

